X:1
T:Kano, 11.11.11 D
T:Kano, 11.11.11 D
T:Knowles Shaw, 1877
T:Public Domain Courtesy of the Cyber Hymnal™
C:Knowles Shaw, 1877
Z:Public Domain
Z:Courtesy of the Cyber Hymnal™
%%score ( 1 2 ) ( 3 4 )
L:1/8
Q:1/4=105
M:6/8
K:E
V:1 treble 
V:2 treble 
V:3 bass 
V:4 bass 
V:1
 E2 E (EF)[EG] | [EB]3 [EG]3 | [EB]2 [EG] (EF)[EG] | [DF]6 | [EG]2 [EG] [EG]2 [FA] | %5
 [Fc]3 [Ge]2 z | [EB]2 [EG] [EG]2 [DF] | E3- E2 z | E2 E (EF)[EG] | [EB]3 [EG]3 | %10
 [EB]2 [EG] (EF)[EG] | [DF]6 | [EG]2 [EG] [EG]2 [FA] | [Fc]3 [Ge]2 z | [EB]2 [EG] [EG]2 [DF] | %15
 E3- E2 z | [EB]2 [EG] [EB]2 [Ec] | [EB]3 [EG]2 z | [EB]2 [EG] E2 [EG] | [DF]3- [DF]2 z | %20
 [EG]2 [EG] (GA)[EB] | [Ec]3 [Ee]3 | [EB]2 [EG] [EG]2 [DF] | E6 |] %24
V:2
 E2 E E2 x | x6 | x3 E2 x | x6 | x6 | x6 | x6 | E3- E2 x | E2 E E2 x | x6 | x3 E2 x | x6 | x6 | %13
 x6 | x6 | E3- E2 x | x6 | x6 | x3 E2 x | x6 | x3 E2 x | x6 | x6 | E6 |] %24
V:3
 [E,G,]2 [E,G,] (G,A,)[E,B,] | [E,G,]3 [E,B,]3 | [E,G,]2 [E,B,] (G,A,)[E,B,] | [B,,B,]6 | %4
 [E,B,]2 [E,B,] [E,B,]2 [E,B,] | A,3 [E,B,]2 z | [E,G,]2 [E,B,] [B,,B,]2 [B,,A,] | %7
 [E,G,]3- [E,G,]2 z | [E,G,]2 [E,G,] (G,A,)[E,B,] | [E,G,]3 [E,B,]3 | [E,G,]2 [E,B,] (G,A,)[E,B,] | %11
 [B,,B,]6 | [E,B,]2 [E,B,] [E,B,]2 [E,B,] | A,3 [E,B,]2 z | [E,G,]2 [E,B,] [B,,B,]2 [B,,A,] | %15
 [E,G,]3- [E,G,]2 z | [E,G,]2 [E,B,] [E,G,]2 A, | [E,G,]3 [E,B,]2 z | %18
 [E,G,]2 [E,B,] [E,G,]2 [E,B,] | [B,,B,]3- [B,,B,]2 z | [E,B,]2 [E,B,] B,2 [G,B,] | A,3 [A,C]3 | %22
 [B,,G,]2 [B,,B,] [B,,B,]2 [B,,A,] | [E,G,]6 |] %24
V:4
 x3 E,2 x | x6 | x3 E,2 x | x6 | x6 | A,3 x3 | x6 | x6 | x3 E,2 x | x6 | x3 E,2 x | x6 | x6 | %13
 A,3 x3 | x6 | x6 | x5 A, | x6 | x6 | x6 | x3 (E,F,) x | A,3 x3 | x6 | x6 |] %24

